tests/madness.CUBE
#Created by: Adobe Photoshop Export Color Lookup Plugin
TITLE "madness"
#LUT size
LUT_3D_SIZE 5
#data domain
#LUT data points
DOMAIN_MIN 0.000000 0.000000 0.000000
DOMAIN_MAX 0.903226 0.903226 0.903226
1.000000 1.000000 1.000000
1.000000 0.906647 0.787262
1.000000 0.814880 0.570374
1.000000 0.724670 0.347351
1.000000 0.636261 0.112732
0.807953 1.000000 0.925964
0.876068 1.000000 0.787262
0.943176 1.000000 0.570374
1.000000 0.986603 0.347351
1.000000 0.893585 0.112732
0.606171 1.000000 0.851532
0.606171 1.000000 0.636047
0.748535 1.000000 0.570374
0.817596 1.000000 0.347351
0.885651 1.000000 0.112732
0.389526 1.000000 0.776611
0.389526 1.000000 0.559509
0.400818 1.000000 0.347351
0.616425 1.000000 0.347351
0.688141 1.000000 0.112732
0.142822 1.000000 0.701202
0.142822 1.000000 0.482178
0.142822 1.000000 0.255676
0.247253 1.000000 0.112732
0.478363 1.000000 0.112732
0.933716 0.737366 1.000000
1.000000 0.737366 0.862122
1.000000 0.561920 0.570374
1.000000 0.477264 0.347351
1.000000 0.394897 0.112732
0.807953 0.827820 1.000000
0.807953 0.737366 0.787262
0.950134 0.704498 0.406952
1.000000 0.636261 0.112732
0.891266 0.508118 0.000000
0.606171 0.919800 1.000000
0.448608 0.929535 0.759613
0.632843 0.929535 0.406952
0.885651 1.000000 0.112732
0.891266 0.831604 0.000000
0.389526 1.000000 0.989471
0.142822 1.000000 0.701202
0.142822 1.000000 0.255676
0.478363 1.000000 0.112732
0.648743 0.848358 0.000000
0.142822 1.000000 0.915466
0.000000 0.848358 0.587708
0.000000 0.848358 0.300262
0.029297 0.848358 0.000000
0.371460 0.848358 0.000000
0.866486 0.489105 1.000000
1.000000 0.489105 0.936493
1.000000 0.489105 0.722656
1.000000 0.260040 0.358673
1.000000 0.175995 0.112732
0.667999 0.489105 1.000000
0.782562 0.318176 0.944244
0.950134 0.318176 0.598602
1.000000 0.175995 0.112732
0.891266 0.216003 0.000000
0.606171 0.661133 1.000000
0.448608 0.520142 0.944244
0.606171 0.489105 0.570374
0.755859 0.458374 0.176453
0.694061 0.355499 0.000000
0.389526 0.750031 1.000000
0.142822 0.840729 1.000000
0.212921 0.670380 0.542053
0.418579 0.670380 0.176453
0.606079 0.593506 0.000000
0.142822 0.840729 1.000000
0.000000 0.848358 0.865234
0.000000 0.593506 0.444000
0.000000 0.593506 0.112854
0.289276 0.593506 0.000000
0.798187 0.260040 1.000000
0.990601 0.260040 1.000000
1.000000 0.260040 0.797852
1.000000 0.260040 0.581238
1.000000 0.062012 0.208618
0.595856 0.260040 1.000000
0.728668 0.062012 1.000000
1.000000 0.062012 0.872681
1.000000 0.062012 0.437378
0.891266 0.000000 0.019104
0.389526 0.270874 1.000000
0.296387 0.062012 1.000000
0.579254 0.109741 0.730560
0.755859 0.109741 0.376526
0.694061 0.062103 0.000000
0.389526 0.500977 1.000000
0.142822 0.348755 1.000000
0.212921 0.288177 0.730560
0.389526 0.260040 0.347351
0.484711 0.212860 0.000000
0.142822 0.586304 1.000000
0.000000 0.538940 0.878876
0.000000 0.489014 0.663940
0.000000 0.355377 0.296844
0.201996 0.355377 0.000000
0.728668 0.062012 1.000000
0.924255 0.062012 1.000000
1.000000 0.062012 0.872681
1.000000 0.062012 0.657593
1.000000 0.062012 0.437378
0.521851 0.062012 1.000000
0.622559 0.000000 0.878876
0.878906 0.000000 0.878876
0.891266 0.000000 0.615540
0.891266 0.000000 0.329346
0.296387 0.062012 1.000000
0.342041 0.000000 0.878876
0.484833 0.000000 0.663940
0.694061 0.000000 0.570282
0.694061 0.000000 0.248810
0.142822 0.135834 1.000000
0.000000 0.006439 0.878876
0.142944 0.000000 0.663940
0.338593 0.000000 0.443878
0.484711 0.000000 0.166321
0.142822 0.348755 1.000000
0.000000 0.242981 0.878876
0.000000 0.170013 0.663940
0.000000 0.101776 0.443878
0.142822 0.062012 0.112732
