tests/madness.CUBE
#Created by: Adobe Photoshop Export Color Lookup Plugin
TITLE "madness"
#LUT size
LUT_3D_SIZE 32
#data domain
DOMAIN_MIN 0.0 0.0 0.0
DOMAIN_MAX 1.0 1.0 1.0
#LUT data points
1.000000 1.000000 1.000000
1.000000 0.986572 0.969818
1.000000 0.973175 0.939575
1.000000 0.959839 0.909271
1.000000 0.946503 0.878876
1.000000 0.933197 0.848419
1.000000 0.919922 0.817902
1.000000 0.906647 0.787262
1.000000 0.893494 0.756561
1.000000 0.880310 0.725800
1.000000 0.867157 0.694916
1.000000 0.854034 0.663940
1.000000 0.840912 0.632874
1.000000 0.827911 0.601685
1.000000 0.814880 0.570374
1.000000 0.801880 0.538971
1.000000 0.788910 0.507385
1.000000 0.776001 0.475708
1.000000 0.763123 0.443878
1.000000 0.750305 0.411896
1.000000 0.737488 0.379700
1.000000 0.724670 0.347351
1.000000 0.711945 0.314789
1.000000 0.699219 0.281982
1.000000 0.686584 0.248901
1.000000 0.673920 0.215485
1.000000 0.661346 0.181732
1.000000 0.648773 0.147522
1.000000 0.636261 0.112732
1.000000 0.623810 0.077179
1.000000 0.611359 0.040375
1.000000 0.598969 0.000000
0.973053 1.000000 0.989441
0.982513 1.000000 0.969818
0.991943 1.000000 0.939575
1.000000 0.998077 0.909271
1.000000 0.984680 0.878876
1.000000 0.971283 0.848419
1.000000 0.957977 0.817902
1.000000 0.944611 0.787262
1.000000 0.931305 0.756561
1.000000 0.918030 0.725800
1.000000 0.904846 0.694916
1.000000 0.891571 0.663940
1.000000 0.878387 0.632874
1.000000 0.865265 0.601685
1.000000 0.852203 0.570374
1.000000 0.839111 0.538971
1.000000 0.826050 0.507385
1.000000 0.813019 0.475708
1.000000 0.800079 0.443878
1.000000 0.787170 0.411896
1.000000 0.774231 0.379700
1.000000 0.761292 0.347351
1.000000 0.748413 0.314789
1.000000 0.735626 0.281982
1.000000 0.722961 0.248901
1.000000 0.710205 0.215485
1.000000 0.697540 0.181732
1.000000 0.684814 0.147522
1.000000 0.672089 0.112732
1.000000 0.659485 0.077179
1.000000 0.647125 0.040375
1.000000 0.634460 0.000000
0.945953 1.000000 0.978882
0.945953 1.000000 0.948669
0.964935 1.000000 0.939575
0.974396 1.000000 0.909271
0.983826 1.000000 0.878876
0.993256 1.000000 0.848419
1.000000 0.996185 0.817902
1.000000 0.982758 0.787262
1.000000 0.969421 0.756561
1.000000 0.956024 0.725800
1.000000 0.942719 0.694916
1.000000 0.929474 0.663940
1.000000 0.916199 0.632874
1.000000 0.902924 0.601685
1.000000 0.889709 0.570374
1.000000 0.876556 0.538971
1.000000 0.863434 0.507385
1.000000 0.850342 0.475708
1.000000 0.837219 0.443878
1.000000 0.824158 0.411896
1.000000 0.811249 0.379700
1.000000 0.798218 0.347351
1.000000 0.785187 0.314789
1.000000 0.772308 0.281982
1.000000 0.759430 0.248901
1.000000 0.746735 0.215485
1.000000 0.733826 0.181732
1.000000 0.720978 0.147522
1.000000 0.708435 0.112732
1.000000 0.695496 0.077179
1.000000 0.682953 0.040375
1.000000 0.670288 0.000000
0.918671 1.000000 0.968353
0.918671 1.000000 0.938080
0.920074 1.000000 0.909271
0.947296 1.000000 0.909271
0.956787 1.000000 0.878876
0.966248 1.000000 0.848419
0.975739 1.000000 0.817902
0.985199 1.000000 0.787262
0.994598 1.000000 0.756561
1.000000 0.994263 0.725800
1.000000 0.980927 0.694916
1.000000 0.967499 0.663940
1.000000 0.954132 0.632874
1.000000 0.940796 0.601685
1.000000 0.927582 0.570374
1.000000 0.914246 0.538971
1.000000 0.901062 0.507385
1.000000 0.887878 0.475708
1.000000 0.874756 0.443878
1.000000 0.861603 0.411896
1.000000 0.848389 0.379700
1.000000 0.835358 0.347351
1.000000 0.822449 0.314789
1.000000 0.809296 0.281982
1.000000 0.796387 0.248901
1.000000 0.783539 0.215485
1.000000 0.770630 0.181732
1.000000 0.757660 0.147522
1.000000 0.744873 0.112732
1.000000 0.732117 0.077179
1.000000 0.719360 0.040375
1.000000 0.706421 0.000000
0.891266 1.000000 0.957764
0.891266 1.000000 0.927490
0.891266 1.000000 0.897125
0.902222 1.000000 0.878876
0.929596 1.000000 0.878876
0.939117 1.000000 0.848419
0.948608 1.000000 0.817902
0.958130 1.000000 0.787262
0.967621 1.000000 0.756561
0.977081 1.000000 0.725800
0.986511 1.000000 0.694916
0.995972 1.000000 0.663940
1.000000 0.992340 0.632874
1.000000 0.978973 0.601685
1.000000 0.965576 0.570374
1.000000 0.952240 0.538971
1.000000 0.938934 0.507385
1.000000 0.925690 0.475708
1.000000 0.912384 0.443878
1.000000 0.899109 0.411896
1.000000 0.885956 0.379700
1.000000 0.872803 0.347351
1.000000 0.859772 0.314789
1.000000 0.846527 0.281982
1.000000 0.833618 0.248901
1.000000 0.820435 0.215485
1.000000 0.807465 0.181732
1.000000 0.794617 0.147522
1.000000 0.781555 0.112732
1.000000 0.768707 0.077179
1.000000 0.755829 0.040375
1.000000 0.742859 0.000000
0.863678 1.000000 0.947174
0.863678 1.000000 0.916870
0.863678 1.000000 0.886536
0.863678 1.000000 0.856079
0.884369 1.000000 0.848419
0.911835 1.000000 0.848419
0.921387 1.000000 0.817902
0.930908 1.000000 0.787262
0.940460 1.000000 0.756561
0.949951 1.000000 0.725800
0.959473 1.000000 0.694916
0.968933 1.000000 0.663940
0.978394 1.000000 0.632874
0.987885 1.000000 0.601685
0.997253 1.000000 0.570374
1.000000 0.990448 0.538971
1.000000 0.977081 0.507385
1.000000 0.963776 0.475708
1.000000 0.950439 0.443878
1.000000 0.937073 0.411896
1.000000 0.923767 0.379700
1.000000 0.910492 0.347351
1.000000 0.897339 0.314789
1.000000 0.884033 0.281982
1.000000 0.870911 0.248901
1.000000 0.857819 0.215485
1.000000 0.844818 0.181732
1.000000 0.831573 0.147522
1.000000 0.818542 0.112732
1.000000 0.805603 0.077179
1.000000 0.792816 0.040375
1.000000 0.779877 0.000000
0.835907 1.000000 0.936554
0.835907 1.000000 0.906250
0.835907 1.000000 0.875885
0.835907 1.000000 0.845398
0.838684 1.000000 0.817902
0.866394 1.000000 0.817902
0.893982 1.000000 0.817902
0.903564 1.000000 0.787262
0.913177 1.000000 0.756561
0.922729 1.000000 0.725800
0.932281 1.000000 0.694916
0.941833 1.000000 0.663940
0.951324 1.000000 0.632874
0.960876 1.000000 0.601685
0.970337 1.000000 0.570374
0.979767 1.000000 0.538971
0.989166 1.000000 0.507385
0.998535 1.000000 0.475708
1.000000 0.988525 0.443878
1.000000 0.975128 0.411896
1.000000 0.961853 0.379700
1.000000 0.948456 0.347351
1.000000 0.935181 0.314789
1.000000 0.921814 0.281982
1.000000 0.908661 0.248901
1.000000 0.895447 0.215485
1.000000 0.882233 0.181732
1.000000 0.869080 0.147522
1.000000 0.856079 0.112732
1.000000 0.842773 0.077179
1.000000 0.829773 0.040375
1.000000 0.816895 0.000000
0.807953 1.000000 0.925964
0.807953 1.000000 0.895660
0.807953 1.000000 0.865234
0.807953 1.000000 0.834747
0.807953 1.000000 0.804138
0.820526 1.000000 0.787262
0.848389 1.000000 0.787262
0.876068 1.000000 0.787262
0.885712 1.000000 0.756561
0.895355 1.000000 0.725800
0.904968 1.000000 0.694916
0.914490 1.000000 0.663940
0.924133 1.000000 0.632874
0.933594 1.000000 0.601685
0.943176 1.000000 0.570374
0.952728 1.000000 0.538971
0.962158 1.000000 0.507385
0.971710 1.000000 0.475708
0.981079 1.000000 0.443878
0.990509 1.000000 0.411896
0.999878 1.000000 0.379700
1.000000 0.986603 0.347351
1.000000 0.973267 0.314789
1.000000 0.960022 0.281982
1.000000 0.946686 0.248901
1.000000 0.933319 0.215485
1.000000 0.920105 0.181732
1.000000 0.906799 0.147522
1.000000 0.893585 0.112732
1.000000 0.880493 0.077179
1.000000 0.867310 0.040375
1.000000 0.854156 0.000000
0.779785 1.000000 0.915375
0.779785 1.000000 0.885010
0.779785 1.000000 0.854553
0.779785 1.000000 0.824036
0.779785 1.000000 0.793457
0.779785 1.000000 0.762756
0.802307 1.000000 0.756561
0.830261 1.000000 0.756561
0.858093 1.000000 0.756561
0.867767 1.000000 0.725800
0.877411 1.000000 0.694916
0.887085 1.000000 0.663940
0.896698 1.000000 0.632874
0.906281 1.000000 0.601685
0.915863 1.000000 0.570374
0.925415 1.000000 0.538971
0.934998 1.000000 0.507385
0.944580 1.000000 0.475708
0.954071 1.000000 0.443878
0.963440 1.000000 0.411896
0.973022 1.000000 0.379700
0.982483 1.000000 0.347351
0.991913 1.000000 0.314789
1.000000 0.998291 0.281982
1.000000 0.984711 0.248901
1.000000 0.971466 0.215485
1.000000 0.957977 0.181732
1.000000 0.944824 0.147522
1.000000 0.931366 0.112732
1.000000 0.918152 0.077179
1.000000 0.904846 0.040375
1.000000 0.891693 0.000000
0.751434 1.000000 0.904755
0.751434 1.000000 0.874359
0.751434 1.000000 0.843872
0.751434 1.000000 0.813385
0.751434 1.000000 0.782745
0.751434 1.000000 0.751984
0.755676 1.000000 0.725800
0.783997 1.000000 0.725800
0.812103 1.000000 0.725800
0.840027 1.000000 0.725800
0.849792 1.000000 0.694916
0.859497 1.000000 0.663940
0.869141 1.000000 0.632874
0.878754 1.000000 0.601685
0.888489 1.000000 0.570374
0.898010 1.000000 0.538971
0.907684 1.000000 0.507385
0.917267 1.000000 0.475708
0.926788 1.000000 0.443878
0.936371 1.000000 0.411896
0.945892 1.000000 0.379700
0.955414 1.000000 0.347351
0.964783 1.000000 0.314789
0.974274 1.000000 0.281982
0.983765 1.000000 0.248901
0.993103 1.000000 0.215485
1.000000 0.996338 0.181732
1.000000 0.982819 0.147522
1.000000 0.969635 0.112732
1.000000 0.956146 0.077179
1.000000 0.942902 0.040375
1.000000 0.929504 0.000000
0.722839 1.000000 0.894135
0.722839 1.000000 0.863678
0.722839 1.000000 0.833221
0.722839 1.000000 0.802643
0.722839 1.000000 0.772003
0.722839 1.000000 0.741241
0.722839 1.000000 0.710388
0.737122 1.000000 0.694916
0.765594 1.000000 0.694916
0.793823 1.000000 0.694916
0.821899 1.000000 0.694916
0.831665 1.000000 0.663940
0.841431 1.000000 0.632874
0.851105 1.000000 0.601685
0.860809 1.000000 0.570374
0.870483 1.000000 0.538971
0.880157 1.000000 0.507385
0.889862 1.000000 0.475708
0.899506 1.000000 0.443878
0.908997 1.000000 0.411896
0.918610 1.000000 0.379700
0.928223 1.000000 0.347351
0.937653 1.000000 0.314789
0.947174 1.000000 0.281982
0.956635 1.000000 0.248901
0.966248 1.000000 0.215485
0.975708 1.000000 0.181732
0.985107 1.000000 0.147522
0.994476 1.000000 0.112732
1.000000 0.994293 0.077179
1.000000 0.980927 0.040375
1.000000 0.967529 0.000000
0.694061 1.000000 0.883484
0.694061 1.000000 0.853058
0.694061 1.000000 0.822479
0.694061 1.000000 0.791931
0.694061 1.000000 0.761292
0.694061 1.000000 0.730438
0.694061 1.000000 0.699615
0.694061 1.000000 0.668610
0.718506 1.000000 0.663940
0.747070 1.000000 0.663940
0.775543 1.000000 0.663940
0.803680 1.000000 0.663940
0.813477 1.000000 0.632874
0.823303 1.000000 0.601685
0.833069 1.000000 0.570374
0.842773 1.000000 0.538971
0.852509 1.000000 0.507385
0.862244 1.000000 0.475708
0.871887 1.000000 0.443878
0.881592 1.000000 0.411896
0.891144 1.000000 0.379700
0.900848 1.000000 0.347351
0.910370 1.000000 0.314789
0.919952 1.000000 0.281982
0.929565 1.000000 0.248901
0.939087 1.000000 0.215485
0.948547 1.000000 0.181732
0.958038 1.000000 0.147522
0.967560 1.000000 0.112732
0.976898 1.000000 0.077179
0.986420 1.000000 0.040375
0.995941 1.000000 0.000000
0.665039 1.000000 0.872833
0.665039 1.000000 0.842407
0.665039 1.000000 0.811768
0.665039 1.000000 0.781189
0.665039 1.000000 0.750488
0.665039 1.000000 0.719635
0.665039 1.000000 0.688782
0.665039 1.000000 0.657806
0.670837 1.000000 0.632874
0.699799 1.000000 0.632874
0.728516 1.000000 0.632874
0.757111 1.000000 0.632874
0.785400 1.000000 0.632874
0.795258 1.000000 0.601685
0.805054 1.000000 0.570374
0.814850 1.000000 0.538971
0.824646 1.000000 0.507385
0.834442 1.000000 0.475708
0.844116 1.000000 0.443878
0.853882 1.000000 0.411896
0.863678 1.000000 0.379700
0.873322 1.000000 0.347351
0.882935 1.000000 0.314789
0.892517 1.000000 0.281982
0.902130 1.000000 0.248901
0.911743 1.000000 0.215485
0.921387 1.000000 0.181732
0.930908 1.000000 0.147522
0.940460 1.000000 0.112732
0.949860 1.000000 0.077179
0.959473 1.000000 0.040375
0.968964 1.000000 0.000000
0.635742 1.000000 0.862213
0.635742 1.000000 0.831696
0.635742 1.000000 0.801117
0.635742 1.000000 0.770477
0.635742 1.000000 0.739746
0.635742 1.000000 0.708923
0.635742 1.000000 0.677979
0.635742 1.000000 0.646881
0.635742 1.000000 0.615723
0.651825 1.000000 0.601685
0.680969 1.000000 0.601685
0.709900 1.000000 0.601685
0.738556 1.000000 0.601685
0.766998 1.000000 0.601685
0.776947 1.000000 0.570374
0.786743 1.000000 0.538971
0.796600 1.000000 0.507385
0.806488 1.000000 0.475708
0.816315 1.000000 0.443878
0.826111 1.000000 0.411896
0.835876 1.000000 0.379700
0.845459 1.000000 0.347351
0.855316 1.000000 0.314789
0.864960 1.000000 0.281982
0.874573 1.000000 0.248901
0.884247 1.000000 0.215485
0.893921 1.000000 0.181732
0.903534 1.000000 0.147522
0.913055 1.000000 0.112732
0.922699 1.000000 0.077179
0.932190 1.000000 0.040375
0.941681 1.000000 0.000000
0.606171 1.000000 0.851532
0.606171 1.000000 0.820953
0.606171 1.000000 0.790405
0.606171 1.000000 0.759705
0.606171 1.000000 0.728973
0.606171 1.000000 0.698029
0.606171 1.000000 0.667145
0.606171 1.000000 0.636047
0.606171 1.000000 0.604797
0.606171 1.000000 0.573578
0.632751 1.000000 0.570374
0.662018 1.000000 0.570374
0.691132 1.000000 0.570374
0.719910 1.000000 0.570374
0.748535 1.000000 0.570374
0.758453 1.000000 0.538971
0.768372 1.000000 0.507385
0.778320 1.000000 0.475708
0.788147 1.000000 0.443878
0.798035 1.000000 0.411896
0.807892 1.000000 0.379700
0.817596 1.000000 0.347351
0.827515 1.000000 0.314789
0.837219 1.000000 0.281982
0.846985 1.000000 0.248901
0.856567 1.000000 0.215485
0.866425 1.000000 0.181732
0.875946 1.000000 0.147522
0.885651 1.000000 0.112732
0.895355 1.000000 0.077179
0.904968 1.000000 0.040375
0.914398 1.000000 0.000000
0.576294 1.000000 0.840851
0.576294 1.000000 0.810303
0.576294 1.000000 0.779694
0.576294 1.000000 0.748993
0.576294 1.000000 0.718170
0.576294 1.000000 0.687286
0.576294 1.000000 0.656311
0.576294 1.000000 0.625214
0.576294 1.000000 0.593872
0.576294 1.000000 0.562592
0.583740 1.000000 0.538971
0.613525 1.000000 0.538971
0.643036 1.000000 0.538971
0.672241 1.000000 0.538971
0.701233 1.000000 0.538971
0.729980 1.000000 0.538971
0.739929 1.000000 0.507385
0.749939 1.000000 0.475708
0.759918 1.000000 0.443878
0.769745 1.000000 0.411896
0.779694 1.000000 0.379700
0.789520 1.000000 0.347351
0.799377 1.000000 0.314789
0.809296 1.000000 0.281982
0.819061 1.000000 0.248901
0.828766 1.000000 0.215485
0.838593 1.000000 0.181732
0.848389 1.000000 0.147522
0.858063 1.000000 0.112732
0.867615 1.000000 0.077179
0.877350 1.000000 0.040375
0.886993 1.000000 0.000000
0.546082 1.000000 0.830170
0.546082 1.000000 0.799591
0.546082 1.000000 0.768921
0.546082 1.000000 0.738190
0.546082 1.000000 0.707336
0.546082 1.000000 0.676392
0.546082 1.000000 0.645355
0.546082 1.000000 0.614197
0.546082 1.000000 0.582947
0.546082 1.000000 0.551575
0.546082 1.000000 0.520081
0.564178 1.000000 0.507385
0.594147 1.000000 0.507385
0.623840 1.000000 0.507385
0.653259 1.000000 0.507385
0.682404 1.000000 0.507385
0.711304 1.000000 0.507385
0.721344 1.000000 0.475708
0.731354 1.000000 0.443878
0.741425 1.000000 0.411896
0.751312 1.000000 0.379700
0.761261 1.000000 0.347351
0.771179 1.000000 0.314789
0.781158 1.000000 0.281982
0.790924 1.000000 0.248901
0.800873 1.000000 0.215485
0.810577 1.000000 0.181732
0.820465 1.000000 0.147522
0.830109 1.000000 0.112732
0.839935 1.000000 0.077179
0.849579 1.000000 0.040375
0.859406 1.000000 0.000000
0.515564 1.000000 0.819489
0.515564 1.000000 0.788879
0.515564 1.000000 0.758148
0.515564 1.000000 0.727356
0.515564 1.000000 0.696503
0.515564 1.000000 0.665527
0.515564 1.000000 0.634430
0.515564 1.000000 0.603363
0.515564 1.000000 0.572083
0.515564 1.000000 0.540680
0.515564 1.000000 0.509094
0.515564 1.000000 0.477417
0.544464 1.000000 0.475708
0.574677 1.000000 0.475708
0.604553 1.000000 0.475708
0.634125 1.000000 0.475708
0.663483 1.000000 0.475708
0.692505 1.000000 0.475708
0.702698 1.000000 0.443878
0.712708 1.000000 0.411896
0.722687 1.000000 0.379700
0.732758 1.000000 0.347351
0.742798 1.000000 0.314789
0.752655 1.000000 0.281982
0.762756 1.000000 0.248901
0.772644 1.000000 0.215485
0.782501 1.000000 0.181732
0.792358 1.000000 0.147522
0.802185 1.000000 0.112732
0.812073 1.000000 0.077179
0.821808 1.000000 0.040375
0.831635 1.000000 0.000000
0.484711 1.000000 0.808777
0.484711 1.000000 0.778076
0.484711 1.000000 0.747437
0.484711 1.000000 0.716583
0.484711 1.000000 0.685730
0.484711 1.000000 0.654663
0.484711 1.000000 0.623657
0.484711 1.000000 0.592346
0.484711 1.000000 0.561096
0.484711 1.000000 0.529572
0.484711 1.000000 0.498047
0.484711 1.000000 0.466278
0.493988 1.000000 0.443878
0.524658 1.000000 0.443878
0.555115 1.000000 0.443878
0.585144 1.000000 0.443878
0.614990 1.000000 0.443878
0.644409 1.000000 0.443878
0.673676 1.000000 0.443878
0.683899 1.000000 0.411896
0.694000 1.000000 0.379700
0.704041 1.000000 0.347351
0.714203 1.000000 0.314789
0.724121 1.000000 0.281982
0.734222 1.000000 0.248901
0.744232 1.000000 0.215485
0.754089 1.000000 0.181732
0.764038 1.000000 0.147522
0.774048 1.000000 0.112732
0.783966 1.000000 0.077179
0.793701 1.000000 0.040375
0.803650 1.000000 0.000000
0.453430 1.000000 0.798096
0.453430 1.000000 0.767334
0.453430 1.000000 0.736664
0.453430 1.000000 0.705750
0.453430 1.000000 0.674896
0.453430 1.000000 0.643799
0.453430 1.000000 0.612762
0.453430 1.000000 0.581421
0.453430 1.000000 0.549988
0.453430 1.000000 0.518555
0.453430 1.000000 0.486877
0.453430 1.000000 0.455200
0.453430 1.000000 0.423187
0.473663 1.000000 0.411896
0.504730 1.000000 0.411896
0.535431 1.000000 0.411896
0.565613 1.000000 0.411896
0.595642 1.000000 0.411896
0.625244 1.000000 0.411896
0.654663 1.000000 0.411896
0.664948 1.000000 0.379700
0.675110 1.000000 0.347351
0.685333 1.000000 0.314789
0.695343 1.000000 0.281982
0.705444 1.000000 0.248901
0.715546 1.000000 0.215485
0.725647 1.000000 0.181732
0.735687 1.000000 0.147522
0.745697 1.000000 0.112732
0.755493 1.000000 0.077179
0.765564 1.000000 0.040375
0.775513 1.000000 0.000000
0.421722 1.000000 0.787354
0.421722 1.000000 0.756622
0.421722 1.000000 0.725830
0.421722 1.000000 0.695068
0.421722 1.000000 0.664062
0.421722 1.000000 0.632904
0.421722 1.000000 0.601715
0.421722 1.000000 0.570374
0.421722 1.000000 0.539093
0.421722 1.000000 0.507507
0.421722 1.000000 0.475800
0.421722 1.000000 0.443939
0.421722 1.000000 0.412079
0.421722 1.000000 0.379852
0.453308 1.000000 0.379700
0.484619 1.000000 0.379700
0.515533 1.000000 0.379700
0.546051 1.000000 0.379700
0.576141 1.000000 0.379700
0.606018 1.000000 0.379700
0.635620 1.000000 0.379700
0.645905 1.000000 0.347351
0.656097 1.000000 0.314789
0.666321 1.000000 0.281982
0.676605 1.000000 0.248901
0.686676 1.000000 0.215485
0.696808 1.000000 0.181732
0.706940 1.000000 0.147522
0.716949 1.000000 0.112732
0.726959 1.000000 0.077179
0.736969 1.000000 0.040375
0.746918 1.000000 0.000000
0.389526 1.000000 0.776611
0.389526 1.000000 0.745911
0.389526 1.000000 0.715088
0.389526 1.000000 0.684204
0.389526 1.000000 0.653198
0.389526 1.000000 0.622070
0.389526 1.000000 0.590851
0.389526 1.000000 0.559509
0.389526 1.000000 0.528076
0.389526 1.000000 0.496490
0.389526 1.000000 0.464752
0.389526 1.000000 0.432861
0.389526 1.000000 0.400818
0.389526 1.000000 0.368439
0.400818 1.000000 0.347351
0.432800 1.000000 0.347351
0.464355 1.000000 0.347351
0.495483 1.000000 0.347351
0.526245 1.000000 0.347351
0.556610 1.000000 0.347351
0.586670 1.000000 0.347351
0.616425 1.000000 0.347351
0.626740 1.000000 0.314789
0.637054 1.000000 0.281982
0.647369 1.000000 0.248901
0.657532 1.000000 0.215485
0.667877 1.000000 0.181732
0.677948 1.000000 0.147522
0.688141 1.000000 0.112732
0.698273 1.000000 0.077179
0.708405 1.000000 0.040375
0.718353 1.000000 0.000000
0.356781 1.000000 0.765869
0.356781 1.000000 0.735138
0.356781 1.000000 0.704315
0.356781 1.000000 0.673248
0.356781 1.000000 0.642212
0.356781 1.000000 0.611115
0.356781 1.000000 0.579865
0.356781 1.000000 0.548523
0.356781 1.000000 0.517059
0.356781 1.000000 0.485291
0.356781 1.000000 0.453522
0.356781 1.000000 0.421600
0.356781 1.000000 0.389526
0.356781 1.000000 0.357269
0.356781 1.000000 0.324799
0.379700 1.000000 0.314789
0.412018 1.000000 0.314789
0.443848 1.000000 0.314789
0.475220 1.000000 0.314789
0.506195 1.000000 0.314789
0.536957 1.000000 0.314789
0.567200 1.000000 0.314789
0.597107 1.000000 0.314789
0.607513 1.000000 0.281982
0.617828 1.000000 0.248901
0.628296 1.000000 0.215485
0.638489 1.000000 0.181732
0.648682 1.000000 0.147522
0.659088 1.000000 0.112732
0.669312 1.000000 0.077179
0.679352 1.000000 0.040375
0.689545 1.000000 0.000000
0.323425 1.000000 0.755127
0.323425 1.000000 0.724365
0.323425 1.000000 0.693481
0.323425 1.000000 0.662537
0.323425 1.000000 0.631439
0.323425 1.000000 0.600281
0.323425 1.000000 0.569000
0.323425 1.000000 0.537415
0.323425 1.000000 0.505859
0.323425 1.000000 0.474213
0.323425 1.000000 0.442352
0.323425 1.000000 0.410400
0.323425 1.000000 0.378204
0.323425 1.000000 0.345886
0.323425 1.000000 0.313293
0.324921 1.000000 0.281982
0.358246 1.000000 0.281982
0.391113 1.000000 0.281982
0.423279 1.000000 0.281982
0.454987 1.000000 0.281982
0.486206 1.000000 0.281982
0.517059 1.000000 0.281982
0.547516 1.000000 0.281982
0.577698 1.000000 0.281982
0.588226 1.000000 0.248901
0.598633 1.000000 0.215485
0.609070 1.000000 0.181732
0.619385 1.000000 0.147522
0.629608 1.000000 0.112732
0.639893 1.000000 0.077179
0.650330 1.000000 0.040375
0.660492 1.000000 0.000000
0.289368 1.000000 0.744385
0.289368 1.000000 0.713470
0.289368 1.000000 0.682709
0.289368 1.000000 0.651611
0.289368 1.000000 0.620422
0.289368 1.000000 0.589325
0.289368 1.000000 0.557922
0.289368 1.000000 0.526398
0.289368 1.000000 0.494904
0.289368 1.000000 0.463104
0.289368 1.000000 0.431152
0.289368 1.000000 0.399200
0.289368 1.000000 0.366913
0.289368 1.000000 0.334412
0.289368 1.000000 0.301880
0.289368 1.000000 0.268890
0.303009 1.000000 0.248901
0.336639 1.000000 0.248901
0.369812 1.000000 0.248901
0.402405 1.000000 0.248901
0.434265 1.000000 0.248901
0.465881 1.000000 0.248901
0.497040 1.000000 0.248901
0.527649 1.000000 0.248901
0.558105 1.000000 0.248901
0.568665 1.000000 0.215485
0.579163 1.000000 0.181732
0.589600 1.000000 0.147522
0.600037 1.000000 0.112732
0.610413 1.000000 0.077179
0.620789 1.000000 0.040375
0.631195 1.000000 0.000000
0.254486 1.000000 0.733612
0.254486 1.000000 0.702728
0.254486 1.000000 0.671753
0.254486 1.000000 0.640656
0.254486 1.000000 0.609650
0.254486 1.000000 0.578369
0.254486 1.000000 0.546936
0.254486 1.000000 0.515411
0.254486 1.000000 0.483734
0.254486 1.000000 0.451904
0.254486 1.000000 0.420105
0.254486 1.000000 0.387939
0.254486 1.000000 0.355621
0.254486 1.000000 0.323059
0.254486 1.000000 0.290283
0.254486 1.000000 0.257233
0.254486 1.000000 0.224091
0.280518 1.000000 0.215485
0.314819 1.000000 0.215485
0.348389 1.000000 0.215485
0.381287 1.000000 0.215485
0.413666 1.000000 0.215485
0.445343 1.000000 0.215485
0.476746 1.000000 0.215485
0.507751 1.000000 0.215485
0.538391 1.000000 0.215485
0.549103 1.000000 0.181732
0.559540 1.000000 0.147522
0.570190 1.000000 0.112732
0.580658 1.000000 0.077179
0.591187 1.000000 0.040375
0.601593 1.000000 0.000000
0.218628 1.000000 0.722809
0.218628 1.000000 0.691833
0.218628 1.000000 0.660950
0.218628 1.000000 0.629761
0.218628 1.000000 0.598694
0.218628 1.000000 0.567291
0.218628 1.000000 0.535950
0.218628 1.000000 0.504303
0.218628 1.000000 0.472748
0.218628 1.000000 0.440796
0.218628 1.000000 0.408875
0.218628 1.000000 0.376587
0.218628 1.000000 0.344330
0.218628 1.000000 0.311615
0.218628 1.000000 0.278900
0.218628 1.000000 0.245697
0.218628 1.000000 0.212189
0.222076 1.000000 0.181732
0.257965 1.000000 0.181732
0.292603 1.000000 0.181732
0.326691 1.000000 0.181732
0.359894 1.000000 0.181732
0.392670 1.000000 0.181732
0.424713 1.000000 0.181732
0.456451 1.000000 0.181732
0.487610 1.000000 0.181732
0.518555 1.000000 0.181732
0.529297 1.000000 0.147522
0.540009 1.000000 0.112732
0.550598 1.000000 0.077179
0.561066 1.000000 0.040375
0.571716 1.000000 0.000000
0.181519 1.000000 0.712006
0.181519 1.000000 0.681030
0.181519 1.000000 0.650146
0.181519 1.000000 0.618988
0.181519 1.000000 0.587677
0.181519 1.000000 0.556488
0.181519 1.000000 0.524963
0.181519 1.000000 0.493256
0.181519 1.000000 0.461456
0.181519 1.000000 0.429688
0.181519 1.000000 0.397583
0.181519 1.000000 0.365265
0.181519 1.000000 0.332947
0.181519 1.000000 0.300232
0.181519 1.000000 0.267242
0.181519 1.000000 0.234131
0.181519 1.000000 0.200531
0.181519 1.000000 0.166534
