tests/madness.CUBE
#Created by: Adobe Photoshop Export Color Lookup Plugin
TITLE "madness"
#LUT size
LUT_3D_SIZE 8
#data domain
#LUT data points
DOMAIN_MIN 0.000000 0.000000 0.000000
DOMAIN_MAX 0.903226 0.903226 0.903226
1.000000 1.000000 1.000000
1.000000 0.946503 0.878876
1.000000 0.893494 0.756561
1.000000 0.840912 0.632874
1.000000 0.788910 0.507385
1.000000 0.737488 0.379700
1.000000 0.686584 0.248901
1.000000 0.636261 0.112732
0.891266 1.000000 0.957764
0.929596 1.000000 0.878876
0.967621 1.000000 0.756561
1.000000 0.992340 0.632874
1.000000 0.938934 0.507385
1.000000 0.885956 0.379700
1.000000 0.833618 0.248901
1.000000 0.781555 0.112732
0.779785 1.000000 0.915375
0.779785 1.000000 0.793457
0.858093 1.000000 0.756561
0.896698 1.000000 0.632874
0.934998 1.000000 0.507385
0.973022 1.000000 0.379700
1.000000 0.984711 0.248901
1.000000 0.931366 0.112732
0.665039 1.000000 0.872833
0.665039 1.000000 0.750488
0.670837 1.000000 0.632874
0.785400 1.000000 0.632874
0.824646 1.000000 0.507385
0.863678 1.000000 0.379700
0.902130 1.000000 0.248901
0.940460 1.000000 0.112732
0.546082 1.000000 0.830170
0.546082 1.000000 0.707336
0.546082 1.000000 0.582947
0.594147 1.000000 0.507385
0.711304 1.000000 0.507385
0.751312 1.000000 0.379700
0.790924 1.000000 0.248901
0.830109 1.000000 0.112732
0.421722 1.000000 0.787354
0.421722 1.000000 0.664062
0.421722 1.000000 0.539093
0.421722 1.000000 0.412079
0.515533 1.000000 0.379700
0.635620 1.000000 0.379700
0.676605 1.000000 0.248901
0.716949 1.000000 0.112732
0.289368 1.000000 0.744385
0.289368 1.000000 0.620422
0.289368 1.000000 0.494904
0.289368 1.000000 0.366913
0.303009 1.000000 0.248901
0.434265 1.000000 0.248901
0.558105 1.000000 0.248901
0.600037 1.000000 0.112732
0.142822 1.000000 0.701202
0.142822 1.000000 0.576782
0.142822 1.000000 0.450439
0.142822 1.000000 0.321564
0.142822 1.000000 0.188568
0.211212 1.000000 0.112732
0.350067 1.000000 0.112732
0.478363 1.000000 0.112732
0.962250 0.848358 1.000000
1.000000 0.848358 0.921387
1.000000 0.744751 0.756561
1.000000 0.693787 0.632874
1.000000 0.643372 0.507385
1.000000 0.593628 0.379700
1.000000 0.544403 0.248901
1.000000 0.496094 0.112732
0.891266 0.900940 1.000000
0.891266 0.848358 0.878876
0.971558 0.829163 0.665649
1.000000 0.788910 0.507416
1.000000 0.737488 0.379700
1.000000 0.686584 0.248901
1.000000 0.636261 0.112732
0.973053 0.576019 0.000000
0.779785 0.954041 1.000000
0.695648 0.959625 0.863220
0.794312 0.959625 0.665649
0.934998 1.000000 0.507416
1.000000 0.987244 0.379700
1.000000 0.908661 0.248901
1.000000 0.840942 0.112732
0.973053 0.755951 0.000000
0.665039 1.000000 0.993988
0.546112 1.000000 0.830170
0.546112 1.000000 0.582977
0.711304 1.000000 0.507416
0.826599 1.000000 0.379700
0.902130 1.000000 0.248901
0.962189 1.000000 0.112732
0.973053 0.942749 0.000000
0.546082 1.000000 0.951752
0.421722 1.000000 0.787354
0.421722 1.000000 0.580933
0.432129 1.000000 0.379700
0.635620 1.000000 0.379700
0.734222 1.000000 0.248901
0.807770 1.000000 0.112732
0.849670 0.961731 0.000000
0.421722 1.000000 0.909332
0.289368 1.000000 0.744385
0.289368 1.000000 0.557922
0.289368 1.000000 0.366913
0.369812 1.000000 0.248901
0.558105 1.000000 0.248901
0.647308 1.000000 0.112732
0.708282 0.961731 0.000000
0.289368 1.000000 0.866882
0.142822 1.000000 0.701202
0.142822 1.000000 0.526520
0.142822 1.000000 0.347565
0.142822 1.000000 0.161316
0.296143 1.000000 0.112732
0.478363 1.000000 0.112732
0.561157 0.961731 0.000000
0.142822 1.000000 0.824066
0.000000 0.961731 0.648560
0.000000 0.961731 0.491638
0.000000 0.961731 0.331329
0.000000 0.961731 0.164825
0.031982 0.961731 0.000000
0.236420 0.961731 0.000000
0.405548 0.961731 0.000000
0.924194 0.700928 1.000000
1.000000 0.700928 0.963745
1.000000 0.700928 0.842285
1.000000 0.558350 0.639069
1.000000 0.502869 0.507385
1.000000 0.455170 0.379700
1.000000 0.408203 0.248901
1.000000 0.362091 0.112732
0.813568 0.700928 1.000000
0.877106 0.595459 0.968170
0.971558 0.595459 0.772369
1.000000 0.502899 0.507416
1.000000 0.500671 0.379700
1.000000 0.475525 0.248901
1.000000 0.441681 0.112732
0.973053 0.404785 0.000000
0.779785 0.803619 1.000000
0.695648 0.719635 0.968170
0.779785 0.700928 0.756561
0.862152 0.682312 0.540710
0.942993 0.663727 0.318329
1.000000 0.636261 0.112732
0.973053 0.576019 0.000000
0.863678 0.485809 0.000000
0.665039 0.855774 1.000000
0.546112 0.908447 1.000000
0.577942 0.809052 0.740753
0.679993 0.809052 0.540710
0.861450 0.919556 0.318329
1.000000 0.982178 0.112732
0.973053 0.848511 0.000000
0.863678 0.668488 0.000000
0.546082 0.908447 1.000000
0.421722 1.000000 0.989990
0.360352 0.919556 0.724854
0.360352 0.919556 0.414429
0.577179 0.919556 0.318329
0.755035 1.000000 0.112732
0.849670 0.961731 0.000000
0.827301 0.811066 0.000000
0.421722 0.961700 1.000000
0.289368 1.000000 0.927582
0.142822 1.000000 0.701202
0.142822 1.000000 0.407806
0.161041 1.000000 0.112732
0.478363 1.000000 0.112732
0.635590 0.961731 0.000000
0.679382 0.811066 0.000000
0.289368 1.000000 0.988007
0.142822 1.000000 0.872864
0.000000 0.961731 0.648560
0.000000 0.961731 0.412048
0.000000 0.961731 0.164825
0.142639 0.961731 0.000000
0.405548 0.961731 0.000000
0.524628 0.811066 0.000000
0.142822 1.000000 0.945709
0.000000 0.961731 0.802795
0.000000 0.811066 0.567352
0.000000 0.811066 0.402435
0.000000 0.811066 0.232239
0.000000 0.811066 0.051636
0.177643 0.811066 0.000000
0.359955 0.811066 0.000000
0.885803 0.558350 1.000000
0.994629 0.558350 1.000000
1.000000 0.558350 0.884888
1.000000 0.558350 0.762695
1.000000 0.421356 0.557739
1.000000 0.323242 0.379700
1.000000 0.278839 0.248901
1.000000 0.235687 0.112732
0.774200 0.558350 1.000000
0.847076 0.421387 1.000000
1.000000 0.421387 0.927399
1.000000 0.421387 0.682465
1.000000 0.291290 0.390259
1.000000 0.278839 0.248901
1.000000 0.260254 0.112732
0.973053 0.244843 0.000000
0.665039 0.565338 1.000000
0.618073 0.421387 1.000000
0.765228 0.456909 0.846741
0.862152 0.456909 0.648865
0.942993 0.325623 0.318329
1.000000 0.319000 0.112732
0.973053 0.323212 0.000000
0.863678 0.313660 0.000000
0.665039 0.708130 1.000000
0.546112 0.614685 1.000000
0.577942 0.576416 0.846741
0.665039 0.558350 0.632874
0.749878 0.540405 0.413605
0.832855 0.522491 0.185425
0.863678 0.485809 0.000000
0.751434 0.398193 0.000000
0.546082 0.759247 1.000000
0.421722 0.761810 1.000000
0.360352 0.808136 0.936279
0.455109 0.662872 0.616821
0.561646 0.662872 0.413605
0.749176 0.770081 0.185425
0.863678 0.795288 0.000000
0.751434 0.586578 0.000000
0.421722 0.811066 1.000000
0.289368 0.863220 1.000000
0.142822 1.000000 0.985992
0.222565 0.770081 0.600739
0.222565 0.770081 0.284576
0.454376 0.770081 0.185425
0.628662 0.811066 0.000000
0.656158 0.664825 0.000000
0.289368 0.863220 1.000000
0.142822 0.946442 1.000000
0.000000 0.961731 0.879028
0.000000 0.811066 0.567352
0.000000 0.811066 0.289673
0.028381 0.811066 0.000000
0.359955 0.811066 0.000000
0.490845 0.664825 0.000000
0.142822 0.916046 1.000000
0.000000 0.961731 0.954773
0.000000 0.811066 0.728943
0.000000 0.664825 0.485352
0.000000 0.664825 0.308350
0.000000 0.664825 0.123383
0.110168 0.664825 0.000000
0.313171 0.664825 0.000000
0.847076 0.421356 1.000000
0.956848 0.421356 1.000000
1.000000 0.421356 0.927399
1.000000 0.421356 0.805573
1.000000 0.421356 0.682434
1.000000 0.291290 0.475647
1.000000 0.170074 0.262115
1.000000 0.119446 0.112732
0.734375 0.421356 1.000000
0.808044 0.291290 1.000000
0.991058 0.291290 1.000000
1.000000 0.291290 0.807709
1.000000 0.291290 0.601562
1.000000 0.170074 0.327728
1.000000 0.097900 0.112732
0.973053 0.100616 0.000000
0.618042 0.421356 1.000000
0.616150 0.291290 1.000000
0.750580 0.232697 0.936279
0.942993 0.232697 0.846008
0.942993 0.232697 0.539886
1.000000 0.062012 0.128998
0.973053 0.100616 0.000000
0.863678 0.155731 0.000000
0.546082 0.475342 1.000000
0.421722 0.301636 1.000000
0.455933 0.232697 0.936279
0.649994 0.324799 0.724121
0.749878 0.324799 0.523651
0.832855 0.201752 0.185425
0.863678 0.206329 0.000000
0.751434 0.223419 0.000000
0.546082 0.614655 1.000000
0.421722 0.523407 1.000000
0.360352 0.456055 0.936279
0.455109 0.438629 0.724121
0.546082 0.421356 0.507385
0.634064 0.404205 0.283783
0.719696 0.387146 0.044495
0.635712 0.313568 0.000000
0.421722 0.664642 1.000000
0.289368 0.643158 1.000000
0.142822 0.669373 1.000000
0.222565 0.661957 0.814545
0.325256 0.521606 0.491089
0.438080 0.521606 0.283783
0.633362 0.625061 0.044495
0.635712 0.513184 0.000000
0.289368 0.715271 1.000000
0.142822 0.737122 1.000000
0.000000 0.792389 0.969818
0.000000 0.811066 0.835419
0.062317 0.625061 0.474731
0.062317 0.625061 0.150238
0.324402 0.625061 0.044495
0.462738 0.523499 0.000000
0.142822 0.766449 1.000000
0.000000 0.792389 0.969818
0.000000 0.762787 0.848419
0.000000 0.664825 0.657837
0.000000 0.523499 0.402344
0.000000 0.523499 0.205536
0.020630 0.523499 0.000000
0.264923 0.523499 0.000000
0.808044 0.291290 1.000000
0.918732 0.291290 1.000000
1.000000 0.291290 0.969788
1.000000 0.291290 0.848419
1.000000 0.291290 0.725647
1.000000 0.291290 0.601562
1.000000 0.170074 0.392426
1.000000 0.062012 0.174835
0.694183 0.291290 1.000000
0.768555 0.170074 1.000000
0.935150 0.170074 1.000000
1.000000 0.170074 0.890930
1.000000 0.170074 0.707153
1.000000 0.170074 0.519897
1.000000 0.062012 0.255463
0.973053 0.000000 0.021057
0.576385 0.291290 1.000000
0.594330 0.170074 1.000000
0.728668 0.062012 1.000000
0.987488 0.062012 1.000000
1.000000 0.062012 0.729706
1.000000 0.062012 0.437378
0.973053 0.000000 0.112579
0.863678 0.022919 0.000000
0.453613 0.291290 1.000000
0.408997 0.170074 1.000000
0.449432 0.062012 1.000000
0.634827 0.116882 0.814545
0.832855 0.116882 0.723328
0.832855 0.116882 0.412842
0.863678 0.000000 0.018402
0.751434 0.069580 0.000000
0.421722 0.388092 1.000000
0.289368 0.241455 1.000000
0.142822 0.073639 1.000000
0.326111 0.116882 0.814545
0.530426 0.201019 0.599945
0.634064 0.201019 0.396301
0.719696 0.089386 0.044495
0.635712 0.133270 0.000000
0.421722 0.523407 1.000000
0.289368 0.434662 1.000000
0.142822 0.348755 1.000000
0.222565 0.324036 0.814545
0.325256 0.307587 0.599945
0.421722 0.291290 0.379700
0.513885 0.275116 0.149414
0.515564 0.232483 0.000000
0.289368 0.572296 1.000000
0.142822 0.537231 1.000000
0.000000 0.523376 0.969818
0.000000 0.515259 0.848419
0.062317 0.520752 0.691498
0.183594 0.386322 0.363098
0.306976 0.386322 0.149414
0.450195 0.388153 0.000000
0.142822 0.621674 1.000000
0.000000 0.610962 0.969818
0.000000 0.575684 0.848419
0.000000 0.547729 0.725800
0.000000 0.523499 0.592316
0.000000 0.388153 0.318115
0.000000 0.388153 0.080872
0.214874 0.388153 0.000000
0.768555 0.170074 1.000000
0.880402 0.170074 1.000000
0.989288 0.170074 1.000000
1.000000 0.170074 0.890930
1.000000 0.170074 0.768707
1.000000 0.170074 0.645264
1.000000 0.170074 0.519897
1.000000 0.062012 0.308167
0.653351 0.170074 1.000000
0.728668 0.062012 1.000000
0.885834 0.062012 1.000000
1.000000 0.062012 0.957703
1.000000 0.062012 0.787079
1.000000 0.062012 0.613983
1.000000 0.062012 0.437378
0.973053 0.000000 0.198425
0.534088 0.170074 1.000000
0.564392 0.062012 1.000000
0.679688 0.000000 0.969818
0.891388 0.000000 0.969818
0.973053 0.000000 0.833038
0.973053 0.000000 0.601532
0.973053 0.000000 0.363434
0.863678 0.000000 0.144012
0.408997 0.170074 1.000000
0.389740 0.062012 1.000000
0.453583 0.000000 0.969818
0.603302 0.000000 0.848419
0.851868 0.000000 0.848419
0.863678 0.000000 0.594208
0.863678 0.000000 0.317932
0.751434 0.000000 0.084259
0.289368 0.181671 1.000000
0.196564 0.062012 1.000000
0.200378 0.000000 0.969818
0.331268 0.000000 0.848419
0.514648 0.018982 0.691498
0.719696 0.018982 0.599152
0.719696 0.018982 0.282928
0.635712 0.000000 0.013062
0.289368 0.303772 1.000000
0.142822 0.175812 1.000000
0.000000 0.061920 0.969818
0.000000 0.006165 0.848419
0.184479 0.018982 0.691498
0.405212 0.088776 0.473969
0.513885 0.088776 0.265961
0.515564 0.040619 0.000000
0.289368 0.434662 1.000000
0.142822 0.348755 1.000000
0.000000 0.275452 0.969818
0.000000 0.232300 0.848419
0.062317 0.200226 0.691498
0.183594 0.185059 0.473969
0.289368 0.170074 0.248901
0.387726 0.155273 0.002686
0.142822 0.482086 1.000000
0.000000 0.438110 0.969818
0.000000 0.397919 0.848419
0.000000 0.361816 0.725800
0.000000 0.332581 0.601654
0.000000 0.319794 0.475708
0.004028 0.258331 0.231750
0.162964 0.258331 0.002686
0.728668 0.062012 1.000000
0.841522 0.062012 1.000000
0.951447 0.062012 1.000000
1.000000 0.062012 0.933472
1.000000 0.062012 0.811554
1.000000 0.062012 0.688538
1.000000 0.062012 0.563934
1.000000 0.062012 0.437378
0.612213 0.062012 1.000000
0.679688 0.000000 0.969818
0.822144 0.000000 0.969818
0.959595 0.000000 0.969818
0.973053 0.000000 0.833038
0.973053 0.000000 0.679199
0.973053 0.000000 0.523132
0.973053 0.000000 0.363434
0.491089 0.062012 1.000000
0.530945 0.000000 0.969818
0.603302 0.000000 0.848419
0.754333 0.000000 0.848419
0.863678 0.000000 0.808472
0.863678 0.000000 0.648224
0.863678 0.000000 0.485077
0.863678 0.000000 0.317932
0.363617 0.062012 1.000000
0.373444 0.000000 0.969818
0.444153 0.000000 0.848419
0.524872 0.000000 0.725800
0.688354 0.000000 0.725800
0.751434 0.000000 0.623413
0.751434 0.000000 0.450195
0.751434 0.000000 0.271973
0.225922 0.062012 1.000000
0.200378 0.000000 0.969818
0.272034 0.000000 0.848419
0.350250 0.000000 0.725800
0.444061 0.000000 0.601654
0.626892 0.000000 0.601654
0.635712 0.000000 0.421387
0.635712 0.000000 0.225464
0.142822 0.108459 1.000000
0.000000 0.007324 0.969818
0.071198 0.000000 0.848419
0.154785 0.000000 0.725800
0.243988 0.000000 0.601654
0.360138 0.000000 0.475708
0.515564 0.000000 0.408600
0.515564 0.000000 0.178253
0.142822 0.223267 1.000000
0.000000 0.127411 0.969818
0.000000 0.084717 0.848419
0.000000 0.042816 0.725800
0.000000 0.003998 0.601654
0.106201 0.000000 0.475708
0.271515 0.000549 0.345581
0.387726 0.000549 0.130707
0.142822 0.348755 1.000000
0.000000 0.275452 0.969818
0.000000 0.232300 0.848419
0.000000 0.190430 0.725800
0.000000 0.149933 0.601654
0.000000 0.111176 0.475708
0.004028 0.074890 0.345581
0.142822 0.062012 0.112732
